icons/bold.svg

<svg width="24" height="24" viewBox="0 0 24 24" fill="none" xmlns="http://www.w3.org/2000/svg">
<path fill-rule="evenodd" clip-rule="evenodd" d="M7 17.002V7.011C7 5.671 7.668 5 9.005 5H11.752C12.644 5 13.404 5.09 14.03 5.269C14.657 5.449 15.168 5.701 15.564 6.029C15.96 6.355 16.248 6.752 16.428 7.219C16.608 7.687 16.698 8.209 16.698 8.786C16.698 9.1 16.658 9.402 16.574 9.694C16.4902 9.98733 16.3585 10.2648 16.184 10.515C15.9958 10.7827 15.7655 11.0181 15.502 11.212C15.224 11.42 14.89 11.602 14.5 11.755C15.351 11.979 15.98 12.343 16.388 12.845C16.796 13.348 17 13.994 17 14.782C17 15.377 16.894 15.932 16.68 16.444C16.468 16.957 16.156 17.404 15.746 17.784C15.335 18.166 14.828 18.464 14.226 18.678C13.622 18.893 12.934 19 12.16 19H9.015C7.672 19 7 18.334 7 17.002ZM9.996 13.062V16.55H12.106C12.502 16.55 12.826 16.495 13.077 16.386C13.328 16.278 13.525 16.136 13.667 15.964C13.809 15.791 13.906 15.595 13.959 15.377C14.012 15.16 14.039 14.939 14.039 14.714C14.039 14.458 14.008 14.228 13.946 14.023C13.888 13.8241 13.7774 13.6445 13.626 13.503C13.476 13.363 13.276 13.253 13.028 13.177C12.78 13.1 12.467 13.062 12.088 13.062H9.997H9.996ZM9.996 10.89H11.556C11.888 10.89 12.186 10.865 12.452 10.813C12.718 10.763 12.944 10.673 13.13 10.544C13.3194 10.4122 13.4673 10.229 13.556 10.016C13.653 9.792 13.702 9.51 13.702 9.17C13.702 8.837 13.664 8.56 13.587 8.34C13.5197 8.13289 13.3969 7.9482 13.232 7.806C13.0553 7.66332 12.8473 7.56461 12.625 7.518C12.3383 7.45589 12.0454 7.4267 11.752 7.431H9.996V10.891V10.89Z" fill="#3A3A47"/>
</svg>

<svg xmlns="http://www.w3.org/2000/svg" width="24" height="24" viewBox="0 0 24 24">
    <path fill="#3A3A47" fill-rule="evenodd" d="M7 17.002V7.011C7 5.671 7.668 5 9.005 5h2.747c.892 0 1.652.09 2.278.269.627.18 1.138.432 1.534.76.396.326.684.723.864 1.19.18.468.27.99.27 1.567 0 .314-.04.616-.124.908a2.761 2.761 0 0 1-.39.821 3.026 3.026 0 0 1-.682.697c-.278.208-.612.39-1.002.543.851.224 1.48.588 1.888 1.09.408.503.612 1.149.612 1.937 0 .595-.106 1.15-.32 1.662-.212.513-.524.96-.934 1.34-.411.382-.918.68-1.52.894-.604.215-1.292.322-2.066.322H9.015C7.672 19 7 18.334 7 17.002zm2.996-3.94v3.488h2.11c.396 0 .72-.055.971-.164.251-.108.448-.25.59-.422.142-.173.239-.369.292-.587.053-.217.08-.438.08-.663 0-.256-.031-.486-.093-.691a1.154 1.154 0 0 0-.32-.52c-.15-.14-.35-.25-.598-.326-.248-.077-.561-.115-.94-.115H9.997zm0-2.172h1.56c.332 0 .63-.025.896-.077.266-.05.492-.14.678-.269a1.21 1.21 0 0 0 .426-.528c.097-.224.146-.506.146-.846 0-.333-.038-.61-.115-.83a1.191 1.191 0 0 0-.355-.534 1.435 1.435 0 0 0-.607-.288 3.857 3.857 0 0 0-.873-.087H9.996v3.46z"/>
</svg>
